X:308
T:O'Rourke's
R:reel
M:4/4
L:1/8
K:Dmaj
A2AG|FGAF DEFD| E.A.A.A ABAG|FGAF DEFD|(3Bcd ec dBAG|
F2 AF DEFD| EA~A2 ABAG| FGAF DEFD|(3Bcd ec d2 zg|
fddc dfaf|edcd efge|fddc dfag|faeg fdde|
fddc dfaf|edcd efge|fdef gbag|faec dBAG||

